X:11
T:All The Way To Galway
S:Colin Hume's website,  colinhume.com  - chords can also be printed below the stave.
Q:1/2=120
M:2/2
L:1/4
K:D
P:A
|: "D"A>B AG | "/"FA d2 | "Em"EF GF | "A7"EF G^G |\
| "D"A>B AG | "/"FA d2 | "A7"cA GE | "D"D2 D2 :|
P:B
|: "D"d>e fd | "A"cA A2 | "G"BG G/A/B/G/ | "A7"BA A2 |\
| "D"d>e fd | "A"ca a>a | "Em"ba "A7"ge | "D"d2 d2 :|

